apps/tokenlist/data/42429/icons/usd.svg

<svg width="64" height="64" viewBox="0 0 64 64" fill="none" xmlns="http://www.w3.org/2000/svg">
<path d="M0 32C0 14.3269 14.3269 0 32 0C49.6731 0 64 14.3269 64 32C64 49.6731 49.6731 64 32 64C14.3269 64 0 49.6731 0 32Z" fill="black"/>
<path d="M32.191 45.7432C30.4087 45.7432 28.7538 45.4293 27.2261 44.8015C25.6985 44.1737 24.459 43.2712 23.5075 42.0941C22.5695 40.9169 22.067 39.5043 22 37.8563V37.8367L25.4975 37.8171V37.8563C25.6315 38.7588 25.9464 39.5763 26.4422 40.3087C26.938 41.0412 27.6549 41.6232 28.593 42.0548C29.5444 42.4734 30.7571 42.6826 32.2312 42.6826C33.7454 42.6826 34.9581 42.4864 35.8693 42.0941C36.794 41.6886 37.464 41.1523 37.8794 40.4853C38.2948 39.8052 38.5025 39.0596 38.5025 38.2487V38.2095C38.5025 37.1369 38.1541 36.2475 37.4573 35.5413C36.7739 34.8219 35.4338 34.2268 33.4372 33.7559L30.4422 33.0496C28.7806 32.6572 27.3735 32.1471 26.2211 31.5193C25.0821 30.8784 24.2178 30.0937 23.6281 29.165C23.0385 28.2364 22.7437 27.1312 22.7437 25.8494V25.8102C22.7437 24.2799 23.1524 22.9523 23.9698 21.8275C24.8007 20.6896 25.9263 19.8132 27.3467 19.1985C28.7672 18.5707 30.3819 18.2568 32.191 18.2568C33.9196 18.2568 35.4874 18.5772 36.8945 19.2181C38.3149 19.859 39.4606 20.7615 40.3317 21.9256C41.2027 23.0766 41.665 24.4303 41.7186 25.9867V26.0063L38.2211 26.026V25.9867C38.1273 24.9927 37.8057 24.1491 37.2563 23.4559C36.7203 22.7626 36.0168 22.2329 35.1457 21.8667C34.2747 21.5005 33.2898 21.3174 32.191 21.3174C30.8911 21.3174 29.799 21.5266 28.9146 21.9452C28.0302 22.3506 27.3601 22.8804 26.9045 23.5343C26.4623 24.1752 26.2412 24.8554 26.2412 25.5747V25.614C26.2412 26.2418 26.3886 26.8238 26.6834 27.3601C26.9916 27.8963 27.4874 28.3737 28.1709 28.7923C28.8543 29.2108 29.7789 29.5574 30.9447 29.8321L33.9397 30.5384C36.526 31.14 38.5159 32.0098 39.9095 33.1477C41.3032 34.2856 42 35.8813 42 37.9348V37.974C42 39.6613 41.5444 41.0869 40.6332 42.251C39.7219 43.402 38.5226 44.2718 37.0352 44.8604C35.5477 45.4489 33.933 45.7432 32.191 45.7432ZM30.9045 49V15H33.3166V49H30.9045Z" fill="white"/>
</svg>

<svg xmlns="http://www.w3.org/2000/svg" width="64" height="64" fill="none" viewBox="0 0 64 64"><path fill="#000" d="M0 32C0 14.327 14.327 0 32 0s32 14.327 32 32-14.327 32-32 32S0 49.673 0 32"/><path fill="#fff" d="M32.191 45.743q-2.673 0-4.965-.942-2.291-.941-3.718-2.707Q22.1 40.328 22 37.856v-.02l3.497-.019v.04q.202 1.353.945 2.452.744 1.098 2.151 1.746 1.427.627 3.638.628 2.271 0 3.638-.589 1.387-.608 2.01-1.609a4.2 4.2 0 0 0 .624-2.236v-.04q0-1.608-1.046-2.668-1.024-1.08-4.02-1.785l-2.995-.706q-2.492-.59-4.22-1.53-1.71-.962-2.594-2.355-.885-1.393-.884-3.316v-.039q0-2.296 1.226-3.982 1.245-1.707 3.377-2.63 2.13-.94 4.844-.941 2.593 0 4.703.961 2.13.962 3.438 2.708 1.305 1.726 1.387 4.06v.02l-3.498.02v-.04q-.14-1.49-.965-2.53-.805-1.04-2.11-1.59-1.307-.549-2.955-.549-1.95 0-3.276.628-1.328.608-2.01 1.59-.664.96-.664 2.04v.039q0 .942.442 1.746.463.805 1.488 1.432 1.025.628 2.774 1.04l2.995.706q3.879.903 5.97 2.61T42 37.935v.039q0 2.53-1.367 4.277-1.366 1.726-3.598 2.61-2.23.882-4.844.882M30.904 49V15h2.413v34z"/></svg>
